X:1
T:Title
%%score ( 1 2 ) ( 3 4 )
L:1/8
Q:1/4=83
M:4/4
K:A
V:1 treble nm="Grand Piano, Soprano"
V:2 treble 
V:3 bass nm="Choir Pad, Farringdon, 76.76 D"
V:4 bass 
V:1
 [CE][CA][CA][Ec] [CA][DA] [DF]2 | [FB][EA][EG][DF] [B,E] [Ec]3 | [CE][CA][CA][Ec] [EA][FA] [DF]2 | %3
w: By~John~Henry~Kurzenknabe,~1890 * * * * * *|||
 [FB][EA][EA][EG] [DG] [CA]3 | [CA][FB][EB][Ec] [Ec][Ed] [Ed]2 | [Ed][Ec][Ec][EB] [EA] A2 G | %6
w: |||
 [DE][CA][CA][Ec] [EA][FA] [DF]2 | [FB][EA][EA][EG] [DG] [CA]3- | [CA]4 z4 |] %9
w: |||
V:2
 x8 | x8 | x8 | x8 | x8 | z4 z E3 | x8 | x8 | x8 |] %9
V:3
 [A,,A,][A,,A,][A,,A,][A,,A,] [A,,A,][D,F,] [D,A,]2 | [D,D][E,C][E,B,][E,G,] [E,G,] [A,,A,]3 | %2
 [A,,A,][A,,A,][A,,A,][A,,A,] [C,A,][D,A,] [D,A,]2 | [D,D][E,C][E,C][E,B,] [E,B,] [A,,A,]3 | %4
 [A,,A,][E,G,][E,G,][E,A,] [E,A,][E,B,] [E,B,]2 | [E,B,]A,A,[G,B,] [A,C] C2 B, | %6
 [E,G,][A,,A,][A,,A,][A,,A,] [C,A,][D,A,] [D,A,]2 | [D,D][E,C][E,C][E,B,] [E,B,] [A,,A,]3- | %8
 [A,,A,]4 z4 |] %9
V:4
 x8 | x8 | x8 | x8 | x8 | z4 z E,3 | x8 | x8 | x8 |] %9

